sources/design/Outline/K.svg

<svg:svg xmlns:cc="http://creativecommons.org/ns#" xmlns:dc="http://purl.org/dc/elements/1.1/" xmlns:inkscape="http://www.inkscape.org/namespaces/inkscape" xmlns:rdf="http://www.w3.org/1999/02/22-rdf-syntax-ns#" xmlns:sodipodi="http://sodipodi.sourceforge.net/DTD/sodipodi-0.dtd" xmlns:svg="http://www.w3.org/2000/svg" xml:space="preserve" width="1000" height="1000" version="1.1" style="clip-rule:evenodd;fill-rule:evenodd;image-rendering:optimizeQuality;shape-rendering:geometricPrecision;text-rendering:geometricPrecision" viewBox="0 0 1000 1000" id="svg10" sodipodi:docname="K.svg" inkscape:version="1.1.1 (3bf5ae0d25, 2021-09-20)"><svg:metadata id="metadata14"><rdf:RDF><cc:Work rdf:about=""><dc:format>image/svg+xml</dc:format><dc:type rdf:resource="http://purl.org/dc/dcmitype/StillImage" /><dc:title /></cc:Work></rdf:RDF></svg:metadata><sodipodi:namedview pagecolor="#ffffff" bordercolor="#666666" borderopacity="1" objecttolerance="10" gridtolerance="10" guidetolerance="10" inkscape:pageopacity="0" inkscape:pageshadow="2" inkscape:window-width="1920" inkscape:window-height="1009" id="namedview12" showgrid="false" inkscape:zoom="0.84890884" inkscape:cx="240.89748" inkscape:cy="381.07743" inkscape:window-x="0" inkscape:window-y="0" inkscape:window-maximized="1" inkscape:current-layer="svg10" showguides="true" inkscape:guide-bbox="true" inkscape:document-rotation="0" inkscape:pagecheckerboard="0"><sodipodi:guide position="0,1000" orientation="0,1" id="guide16" inkscape:label="" inkscape:locked="true" inkscape:color="rgb(0,0,255)" /><sodipodi:guide position="1763.3122,2036.1693" orientation="1000,0" id="guide18" /><sodipodi:guide position="0,200" orientation="0,1" id="guide20" inkscape:label="base" inkscape:locked="true" inkscape:color="rgb(0,0,255)" /><inkscape:grid type="xygrid" id="grid24" originx="-473.37552" originy="-489.69235" /><sodipodi:guide position="0,0" orientation="0,1" id="guide34" inkscape:label="bottom" inkscape:locked="true" inkscape:color="rgb(0,0,255)" /><sodipodi:guide position="225.05109,1693.3186" orientation="0,1" id="guide44" inkscape:label="" inkscape:locked="false" inkscape:color="rgb(0,0,255)" /><sodipodi:guide position="0,900" orientation="0,1" id="guide46" inkscape:label="" inkscape:locked="true" inkscape:color="rgb(0,0,255)" /><sodipodi:guide position="521.96688,543.59681" orientation="1,0" id="guide841" inkscape:label="width" />    </sodipodi:namedview>
 <svg:defs id="defs4"><inkscape:path-effect effect="fillet_chamfer" id="path-effect854" is_visible="true" lpeversion="1" satellites_param="F,0,0,1,0,0,0,1 @ F,0,0,1,0,0,0,1 @ F,0,0,1,0,0,0,1 @ F,0,0,1,0,0,0,1 @ F,0,0,1,0,0,0,1 @ F,0,0,1,0,27.644844,0,1 @ F,0,0,1,0,20.481543,0,1 | F,0,0,1,0,21.931959,0,1 @ F,0,0,1,0,22.46142,0,1 @ F,0,0,1,0,0,0,1 @ F,0,0,1,0,0,0,1 @ F,0,0,1,0,0,0,1 @ F,0,0,1,0,31.186533,0,1 @ F,0,0,1,0,16.99448,0,1 @ F,0,0,1,0,0,0,1 @ F,0,0,1,0,0,0,1 | F,0,0,1,0,18.249991,0,1 @ F,0,0,1,0,30.668128,0,1 @ F,0,0,1,0,0,0,1 @ F,0,0,1,0,0,0,1 @ F,0,0,1,0,0,0,1 @ F,0,0,1,0,0,0,1 @ F,0,0,1,0,0,0,1" unit="px" method="auto" mode="F" radius="0" chamfer_steps="1" flexible="false" use_knot_distance="true" apply_no_radius="true" apply_with_radius="true" only_selected="true" hide_knots="false" /><inkscape:path-effect effect="spiro" id="path-effect852" is_visible="true" lpeversion="1" /><inkscape:path-effect effect="spiro" id="path-effect907" is_visible="true" lpeversion="1" /><inkscape:path-effect effect="spiro" id="path-effect888" is_visible="true" lpeversion="1" /><inkscape:path-effect effect="spiro" id="path-effect869" is_visible="true" lpeversion="1" /><inkscape:path-effect effect="spiro" id="path-effect885" is_visible="true" lpeversion="1" /><inkscape:path-effect effect="spiro" id="path-effect849" is_visible="true" lpeversion="1" /><inkscape:path-effect effect="spiro" id="path-effect851" is_visible="true" lpeversion="1" />
  <svg:style type="text/css" id="style2">
   
    .fil0 {fill:#EF7F1A;fill-rule:nonzero}
   
  </svg:style>
 <inkscape:path-effect effect="spiro" id="path-effect1214" is_visible="true" lpeversion="1" /><inkscape:path-effect effect="spiro" id="path-effect1195" is_visible="true" lpeversion="1" /><inkscape:path-effect effect="spiro" id="path-effect992" is_visible="true" lpeversion="1" /><inkscape:path-effect effect="spiro" id="path-effect1060" is_visible="true" lpeversion="1" /><inkscape:path-effect effect="spiro" id="path-effect1047" is_visible="true" lpeversion="1" /><inkscape:path-effect effect="spiro" id="path-effect1085" is_visible="true" lpeversion="1" /><inkscape:path-effect effect="spiro" id="path-effect1286" is_visible="true" lpeversion="1" /></svg:defs>
 
<svg:g id="path867-6"><svg:path style="color:#000000;fill:#1a5fb4;fill-rule:nonzero;stroke-linecap:round;stroke-linejoin:round;-inkscape-stroke:none;paint-order:fill stroke markers" d="M 125.14063,-27.414062 C 123.38094,-27.383212 121.60957,-27.260740000000002 119.83398,-27.042969000000003 L 29.927734,-16.015625 C 1.8395937,-12.570678 -18.589123,15.258006 -14.064453,42.890625 C -7.3993918,83.594833 -2.7623022,124.63261 -0.17578125,165.79687 C 10.093868,329.23749 -12.198776,495.56419 -20.480469,664.7832 C -22.403333,704.0729 -23.543449,743.4012399999999 -23.896484,782.73633 C -24.126715,808.3886299999999 -0.4346969200000004,830.52771 25.058594,828.7343699999999 L 151.64648,819.8281199999999 C 167.25481,818.7301499999999 185.04413,810.6022299999998 193.33594,794.2441399999999 C 201.62774,777.88605 198.04346999999999,759.7358499999999 190.56055,746.4121099999999 C 174.00832,716.9400099999999 161.18989,685.3373499999999 152.57812,652.6738299999998 C 146.86542,631.0061499999998 143.02795,608.8321999999998 140.64062,586.3066399999998 C 154.39326,572.7734999999998 167.92418,559.0184999999998 181.23047000000003,545.0468699999998 C 182.02909000000002,545.9741599999998 182.82836000000003,546.9008199999998 183.62695000000002,547.8281199999998 C 236.68711000000002,609.4396799999997 287.94341000000003,670.4596799999998 313.87109,740.1777299999998 C 319.40659999999997,755.0623899999998 323.81476999999995,770.3780699999998 327.04492,785.9335899999998 C 332.35374,811.49938 353.07798,830.0 380.46484,830.0 L 502.30273,830.0 C 516.86534,830.0 534.75065,823.93095 543.80859,807.73633 C 552.86653,791.54171 548.60761,772.95737 540.85937,760.56836 C 524.97203,735.16534 508.61087000000003,710.06109 491.78516,685.26953 C 429.54321000000004,593.56023 360.85043,506.26202 286.56641,424.00781 C 296.64578,411.31474000000003 306.61218,398.53222 316.34180000000003,385.56836 C 389.20575,288.48357999999996 452.10969,183.95705999999998 503.79102,74.12695299999996 C 510.83737,59.15245299999996 511.16859,41.099533999999956 503.9043,26.38281199999996 C 496.64001,11.666091 482.30084,1.0617093 466.29492,-2.6191406 L 368.33398,-25.146484 C 342.94485,-30.985173 314.93754,-9.9279609 312.61133,15.462890999999999 C 311.46819,27.940368 309.83539,40.374112 307.71875,52.722656 C 292.96918,138.77218 254.12446,220.88087 198.35547,288.77539 C 185.21954,304.76739000000003 171.0971,319.95141 156.19922,334.33594 C 167.49594,261.27742 180.05405,186.75727999999998 181.57422,109.68555 C 182.16819999999998,79.571128 181.0155,49.426868000000006 178.12891,19.447266000000013 C 175.50928,-7.759674099999987 151.53582999999998,-27.876798999999984 125.14062999999999,-27.414061999999987 L 125.14063,-27.414062 M 119.08398,33.5 C 121.19454999999999,58.437944 122.07943,83.481949 121.58594,108.50195 C 119.83358,197.34566 101.33812999999999,287.42748 88.66992199999999,380.50391 C 88.21295099999999,383.86138 87.83466899999999,387.27346 87.39453099999999,390.64453000000003 C 80.15748099999999,395.63370000000003 72.83802299999999,400.5029 65.36718699999999,405.12891 A 30.003,30.003 0.0 0,0 56.810546999999985,414.16406 C 62.095671999999986,330.79161 65.03001299999998,246.74996000000002 59.707030999999986,162.03516000000002 C 57.190058,121.97774 52.737551,82.051656 46.535156,42.398437 L 119.08398,33.5 M 370.57812,36.935547 L 446.65430000000003,54.431641 C 397.2443,158.41217 337.45565,257.48024 268.35352,349.55273 C 260.79456,359.62438 253.1202,369.60813 245.3418,379.51171999999997 C 239.90295,373.78677999999996 234.53813,367.99134999999995 229.04297,362.32030999999995 A 30.003,30.003 0.0 0,0 218.96875,356.01757999999995 C 227.83431,346.55321 236.48384,336.88474999999994 244.71875,326.85936999999996 C 306.85073,251.21839999999997 350.22562,159.88984999999997 366.85742,62.85937499999994 C 368.3326,54.25312099999994 369.52258,45.60249999999994 370.57812,36.93554699999994 L 370.57812,36.935547 M 204.26367,423.38672 C 205.20139,424.37674000000004 206.14213999999998,425.36381 207.07811999999998,426.35547 C 199.02196999999998,435.90337000000005 190.86315,445.36157000000003 182.60155999999998,454.73242000000005 C 180.02971999999997,451.74892000000006 177.45879999999997,448.76455000000004 174.88671999999997,445.78125000000006 L 204.26367,423.38672 M 248.05469,470.84375 C 318.18749,549.10025 383.1287,632.01568 442.13867,718.96289 C 453.57317,735.8108500000001 464.7075,752.8598000000001 475.69921999999997,770.0 L 384.94140999999996,770.0 C 381.17992,752.77092 376.25683,735.79908 370.10741999999993,719.26367 C 339.2805399999999,636.37197 282.28301999999996,570.43757 229.09179999999992,508.67383000000007 C 226.77709999999993,505.98609000000005 224.4594199999999,503.30086000000006 222.14452999999992,500.6132800000001 C 230.89052999999993,490.7849900000001 239.5279199999999,480.86293000000006 248.0546899999999,470.8437500000001 L 248.05469,470.84375 M 52.011719,483.36719 L 53.892578,599.69141 A 30.003,30.003 0.0 0,0 85.945312,628.33984 C 88.276595,641.58821 91.090163,654.8059499999999 94.560547,667.96875 C 103.07654,700.26901 115.33688000000001,731.48819 130.62695,761.1582 L 36.394531,767.78711 C 36.872596,734.4161 37.815854,701.05126 39.447266,667.7167999999999 C 42.436067,606.6469099999999 47.430186,545.19103 52.011719,483.36718999999994 L 52.011719,483.36719 M 138.21483999999998,495.13867 C 139.44001999999998,496.55998999999997 140.66549999999998,497.98098 141.89061999999998,499.40234 C 140.60789,500.75852 139.29494,502.08549999999997 138.00780999999998,503.4375 C 138.08910999999998,500.66877 138.10401,497.9128 138.21483999999998,495.13867" id="path26310" /></svg:g></svg:svg>

<svg:svg xmlns:cc="http://creativecommons.org/ns#" xmlns:dc="http://purl.org/dc/elements/1.1/" xmlns:inkscape="http://www.inkscape.org/namespaces/inkscape" xmlns:rdf="http://www.w3.org/1999/02/22-rdf-syntax-ns#" xmlns:sodipodi="http://sodipodi.sourceforge.net/DTD/sodipodi-0.dtd" xmlns:svg="http://www.w3.org/2000/svg" xml:space="preserve" width="1000" height="1000" version="1.1" style="clip-rule:evenodd;fill-rule:evenodd;image-rendering:optimizeQuality;shape-rendering:geometricPrecision;text-rendering:geometricPrecision" viewBox="0 0 1000 1000" id="svg10" sodipodi:docname="K.svg" inkscape:version="1.1.1 (3bf5ae0d25, 2021-09-20)"><svg:metadata id="metadata14"><rdf:RDF><cc:Work rdf:about=""><dc:format>image/svg+xml</dc:format><dc:type rdf:resource="http://purl.org/dc/dcmitype/StillImage" /><dc:title /></cc:Work></rdf:RDF></svg:metadata><sodipodi:namedview pagecolor="#ffffff" bordercolor="#666666" borderopacity="1" objecttolerance="10" gridtolerance="10" guidetolerance="10" inkscape:pageopacity="0" inkscape:pageshadow="2" inkscape:window-width="1920" inkscape:window-height="1009" id="namedview12" showgrid="false" inkscape:zoom="0.84890884" inkscape:cx="240.89748" inkscape:cy="381.07743" inkscape:window-x="0" inkscape:window-y="0" inkscape:window-maximized="1" inkscape:current-layer="svg10" showguides="true" inkscape:guide-bbox="true" inkscape:document-rotation="0" inkscape:pagecheckerboard="0"><sodipodi:guide position="0,1000" orientation="0,1" id="guide16" inkscape:label="" inkscape:locked="true" inkscape:color="rgb(0,0,255)" /><sodipodi:guide position="1763.3122,2036.1693" orientation="1000,0" id="guide18" /><sodipodi:guide position="0,200" orientation="0,1" id="guide20" inkscape:label="base" inkscape:locked="true" inkscape:color="rgb(0,0,255)" /><inkscape:grid type="xygrid" id="grid24" originx="-473.37552" originy="-489.69235" /><sodipodi:guide position="0,0" orientation="0,1" id="guide34" inkscape:label="bottom" inkscape:locked="true" inkscape:color="rgb(0,0,255)" /><sodipodi:guide position="225.05109,1693.3186" orientation="0,1" id="guide44" inkscape:label="" inkscape:locked="false" inkscape:color="rgb(0,0,255)" /><sodipodi:guide position="0,900" orientation="0,1" id="guide46" inkscape:label="" inkscape:locked="true" inkscape:color="rgb(0,0,255)" /><sodipodi:guide position="521.96688,543.59681" orientation="1,0" id="guide841" inkscape:label="width" />    </sodipodi:namedview>
 <svg:defs id="defs4"><inkscape:path-effect effect="fillet_chamfer" id="path-effect854" is_visible="true" lpeversion="1" satellites_param="F,0,0,1,0,0,0,1 @ F,0,0,1,0,0,0,1 @ F,0,0,1,0,0,0,1 @ F,0,0,1,0,0,0,1 @ F,0,0,1,0,0,0,1 @ F,0,0,1,0,27.644844,0,1 @ F,0,0,1,0,20.481543,0,1 | F,0,0,1,0,21.931959,0,1 @ F,0,0,1,0,22.46142,0,1 @ F,0,0,1,0,0,0,1 @ F,0,0,1,0,0,0,1 @ F,0,0,1,0,0,0,1 @ F,0,0,1,0,31.186533,0,1 @ F,0,0,1,0,16.99448,0,1 @ F,0,0,1,0,0,0,1 @ F,0,0,1,0,0,0,1 | F,0,0,1,0,18.249991,0,1 @ F,0,0,1,0,30.668128,0,1 @ F,0,0,1,0,0,0,1 @ F,0,0,1,0,0,0,1 @ F,0,0,1,0,0,0,1 @ F,0,0,1,0,0,0,1 @ F,0,0,1,0,0,0,1" unit="px" method="auto" mode="F" radius="0" chamfer_steps="1" flexible="false" use_knot_distance="true" apply_no_radius="true" apply_with_radius="true" only_selected="true" hide_knots="false" /><inkscape:path-effect effect="spiro" id="path-effect852" is_visible="true" lpeversion="1" /><inkscape:path-effect effect="spiro" id="path-effect907" is_visible="true" lpeversion="1" /><inkscape:path-effect effect="spiro" id="path-effect888" is_visible="true" lpeversion="1" /><inkscape:path-effect effect="spiro" id="path-effect869" is_visible="true" lpeversion="1" /><inkscape:path-effect effect="spiro" id="path-effect885" is_visible="true" lpeversion="1" /><inkscape:path-effect effect="spiro" id="path-effect849" is_visible="true" lpeversion="1" /><inkscape:path-effect effect="spiro" id="path-effect851" is_visible="true" lpeversion="1" />
  <svg:style type="text/css" id="style2">
   
    .fil0 {fill:#EF7F1A;fill-rule:nonzero}
   
  </svg:style>
 <inkscape:path-effect effect="spiro" id="path-effect1214" is_visible="true" lpeversion="1" /><inkscape:path-effect effect="spiro" id="path-effect1195" is_visible="true" lpeversion="1" /><inkscape:path-effect effect="spiro" id="path-effect992" is_visible="true" lpeversion="1" /><inkscape:path-effect effect="spiro" id="path-effect1060" is_visible="true" lpeversion="1" /><inkscape:path-effect effect="spiro" id="path-effect1047" is_visible="true" lpeversion="1" /><inkscape:path-effect effect="spiro" id="path-effect1085" is_visible="true" lpeversion="1" /><inkscape:path-effect effect="spiro" id="path-effect1286" is_visible="true" lpeversion="1" /></svg:defs>
 
<svg:g id="path867-6"><svg:path style="color:#000000;fill:#1a5fb4;fill-rule:nonzero;stroke-linecap:round;stroke-linejoin:round;-inkscape-stroke:none" d="m 125.14063,-27.414062 c -1.75969,0.03085 -3.53106,0.153322 -5.30665,0.371093 L 29.927734,-16.015625 C 1.8395937,-12.570678 -18.589123,15.258006 -14.064453,42.890625 -7.3993918,83.594833 -2.7623022,124.63261 -0.17578125,165.79687 10.093868,329.23749 -12.198776,495.56419 -20.480469,664.7832 c -1.922864,39.2897 -3.06298,78.61804 -3.416015,117.95313 -0.230231,25.6523 23.46178708,47.79138 48.955078,45.99804 l 126.587886,-8.90625 c 15.60833,-1.09797 33.39765,-9.22589 41.68946,-25.58398 8.2918,-16.35809 4.70753,-34.50829 -2.77539,-47.83203 -16.55223,-29.4721 -29.37066,-61.07476 -37.98243,-93.73828 -5.7127,-21.66768 -9.55017,-43.84163 -11.9375,-66.36719 13.75264,-13.53314 27.28356,-27.28814 40.58985,-41.25977 0.79862,0.92729 1.59789,1.85395 2.39648,2.78125 53.06016,61.61156 104.31646,122.63156 130.24414,192.34961 5.53551,14.88466 9.94368,30.20034 13.17383,45.75586 C 332.35374,811.49938 353.07798,830 380.46484,830 h 121.83789 c 14.56261,0 32.44792,-6.06905 41.50586,-22.26367 9.05794,-16.19462 4.79902,-34.77896 -2.94922,-47.16797 -15.88734,-25.40302 -32.2485,-50.50727 -49.07421,-75.29883 -62.24195,-91.7093 -130.93473,-179.00751 -205.21875,-261.26172 10.07937,-12.69307 20.04577,-25.47559 29.77539,-38.43945 72.86395,-97.08478 135.76789,-201.6113 187.44922,-311.441407 7.04635,-14.9745 7.37757,-33.027419 0.11328,-47.744141 C 496.64001,11.666091 482.30084,1.0617093 466.29492,-2.6191406 L 368.33398,-25.146484 c -25.38913,-5.838689 -53.39644,15.2185231 -55.72265,40.609375 -1.14314,12.477477 -2.77594,24.911221 -4.89258,37.259765 -14.74957,86.049524 -53.59429,168.158214 -109.36328,236.052734 -13.13593,15.992 -27.25837,31.17602 -42.15625,45.56055 11.29672,-73.05852 23.85483,-147.57866 25.375,-224.65039 0.59398,-30.114422 -0.55872,-60.258682 -3.44531,-90.238284 -2.61963,-27.2069401 -26.59308,-47.324065 -52.98828,-46.861328 z M 119.08398,33.5 c 2.11057,24.937944 2.99545,49.981949 2.50196,75.00195 -1.75236,88.84371 -20.24781,178.92553 -32.916018,272.00196 -0.456971,3.35747 -0.835253,6.76955 -1.275391,10.14062 -7.23705,4.98917 -14.556508,9.85837 -22.027344,14.48438 a 30.003,30.003 0 0 0 -8.55664,9.03515 c 5.285125,-83.37245 8.219466,-167.4141 2.896484,-252.1289 C 57.190058,121.97774 52.737551,82.051656 46.535156,42.398437 Z m 251.49414,3.435547 76.07618,17.496094 C 397.2443,158.41217 337.45565,257.48024 268.35352,349.55273 c -7.55896,10.07165 -15.23332,20.0554 -23.01172,29.95899 -5.43885,-5.72494 -10.80367,-11.52037 -16.29883,-17.19141 a 30.003,30.003 0 0 0 -10.07422,-6.30273 c 8.86556,-9.46437 17.51509,-19.13283 25.75,-29.15821 62.13198,-75.64097 105.50687,-166.96952 122.13867,-263.999995 1.47518,-8.606254 2.66516,-17.256875 3.7207,-25.923828 z M 204.26367,423.38672 c 0.93772,0.99002 1.87847,1.97709 2.81445,2.96875 -8.05615,9.5479 -16.21497,19.0061 -24.47656,28.37695 -2.57184,-2.9835 -5.14276,-5.96787 -7.71484,-8.95117 z m 43.79102,47.45703 c 70.1328,78.2565 135.07401,161.17193 194.08398,248.11914 11.4345,16.84796 22.56883,33.89691 33.56055,51.03711 h -90.75781 c -3.76149,-17.22908 -8.68458,-34.20092 -14.83399,-50.73633 -30.82688,-82.8917 -87.8244,-148.8261 -141.01562,-210.58984 -2.3147,-2.68774 -4.63238,-5.37297 -6.94727,-8.06055 8.746,-9.82829 17.38339,-19.75035 25.91016,-29.76953 z m -196.042971,12.52344 1.880859,116.32422 a 30.003,30.003 0 0 0 32.052734,28.64843 c 2.331283,13.24837 5.144851,26.46611 8.615235,39.62891 8.515993,32.30026 20.776333,63.51944 36.066403,93.18945 l -94.232419,6.62891 c 0.478065,-33.37101 1.421323,-66.73585 3.052735,-100.07031 2.988801,-61.06989 7.98292,-122.52577 12.564453,-184.34961 z m 86.203121,11.77148 c 1.22518,1.42132 2.45066,2.84231 3.67578,4.26367 -1.28273,1.35618 -2.59568,2.68316 -3.88281,4.03516 0.0813,-2.76873 0.0962,-5.5247 0.20703,-8.29883 z" id="path26228" /></svg:g></svg:svg>
